includes/modules/CourseContent/icon.svg

<svg width="32" height="32" viewBox="0 0 32 32" fill="none" xmlns="http://www.w3.org/2000/svg">
<path d="M6.01399 31C3.76224 31 2 29.1962 2 27.1076V4.89241C2 2.70886 3.86014 1 6.01399 1H25.8881C26.965 1 28.042 1.37975 28.8252 2.13924C29.6084 2.89873 30 3.8481 30 4.98734V27.1076C30 29.2911 28.1399 31 25.986 31H6.01399ZM6.01399 2.89873C4.83916 2.89873 3.95804 3.8481 3.95804 4.89241V27.1076C3.95804 28.2468 4.93706 29.1013 6.01399 29.1013H25.8881C27.0629 29.1013 27.9441 28.1519 27.9441 27.1076V26.9177H28.042V4.89241C28.042 3.75316 27.0629 2.89873 25.986 2.89873H6.01399Z" fill="black"/>
<path fill-rule="evenodd" clip-rule="evenodd" d="M8.09235 14.0997C8.03389 14.217 7.993 14.3453 8.00372 14.4759C8.03454 14.8514 8.2573 15.0248 8.68539 14.9971H23.308C23.5591 14.9971 23.7893 14.8845 23.9105 14.666C24.0307 14.4494 23.9085 14.1935 23.7432 14.009L20.5926 10.49C20.1729 10.0077 19.9401 9.92031 19.4003 10.478L16.494 13.1271C16.2148 13.3919 15.8213 13.3296 15.6197 12.9894L12.6191 7.53765C12.1891 6.83126 11.7286 6.8155 11.3696 7.52258L8.09235 14.0997Z" fill="black"/>
<path fill-rule="evenodd" clip-rule="evenodd" d="M22.6518 6.33503C22.6518 7.07239 22.0542 7.67006 21.3168 7.67006C20.5794 7.67006 19.9818 7.07226 19.9818 6.33503C19.9818 5.5978 20.5796 5 21.3168 5C22.054 5 22.6518 5.5978 22.6518 6.33503Z" fill="black"/>
<path d="M7.6 19.4C7.6 20 8 20.4 8.6 20.4H23C23.6 20.4 24 20 24 19.4C24 18.8 23.5 18.4 23 18.4H8.6C8 18.4 7.6 18.8 7.6 19.4Z" fill="black"/>
<path d="M7.6 24.1C7.6 24.7 8 25.1 8.6 25.1H16C16.6 25.1 17 24.7 17 24.1C17 23.5 16.5 23.1 16 23.1H8.6C8 23.1 7.6 23.5 7.6 24.1Z" fill="black"/>
</svg>

<svg version="1.0" id="Layer_1" xmlns="http://www.w3.org/2000/svg" x="0" y="0" width="32" height="32" style="enable-background:new 0 0 32 32" xml:space="preserve"><style>.st0{fill-rule:evenodd;clip-rule:evenodd}</style><path d="M6 31c-2.3 0-4-1.8-4-3.9V4.9C2 2.7 3.9 1 6 1h19.9c1.1 0 2.1.4 2.9 1.1.8.8 1.2 1.7 1.2 2.9v22.1c0 2.2-1.9 3.9-4 3.9H6zM6 2.9c-1.2 0-2 .9-2 2v22.2c0 1.1 1 2 2.1 2H26c1.2 0 2.1-.9 2.1-2v-.2H28v-22c0-1.1-1-2-2.1-2H6z"/><path class="st0" d="M8.1 14.1c-.1.1-.1.2-.1.4 0 .4.3.5.7.5h14.6c.3 0 .5-.1.6-.3.1-.2 0-.5-.2-.7l-3.2-3.5c-.4-.5-.7-.6-1.2 0l-2.9 2.6c-.3.3-.7.2-.9-.1l-3-5.5c-.4-.7-.9-.7-1.2 0l-3.2 6.6zM22.7 6.3c0 .7-.6 1.3-1.3 1.3-.7 0-1.3-.6-1.3-1.3S20.6 5 21.3 5c.8 0 1.4.6 1.4 1.3z"/><path d="M7.6 19.4c0 .6.4 1 1 1H23c.6 0 1-.4 1-1s-.5-1-1-1H8.6c-.6 0-1 .4-1 1zM7.6 24.1c0 .6.4 1 1 1H16c.6 0 1-.4 1-1s-.5-1-1-1H8.6c-.6 0-1 .4-1 1z"/></svg>
